!!!COM: Corelli, Arcangelo
!!!OTL: 
!!!ONM: Opus 3, No. 4
!!!OMV: 2
!!!CDT: 1653/2/17/-1713/1/8/
!!!OCY: Italia
**kern	**kern	**kern	**kern
*clefC	*clefC	*clefG	*clefG
*k[f#c#]	*k[f#c#]	*k[f#c#]	*k[f#c#]
*b:	*b:	*b:	*b:
*M4/4	*M4/4	*M4/4	*M4/4
=1	=1	=1	=1
1r	1r	1r	2ff#
.	.	.	4b
.	.	.	4bb
=2	=2	=2	=2
1r	1r	1r	4aa
.	.	.	8gg
.	.	.	8ff#
.	.	.	2gg
=3	=3	=3	=3
1r	1r	8r	2ff#
.	.	8f#	.
.	.	8f#	.
.	.	8f#	.
.	.	8g#	2ee
.	.	8g#	.
.	.	8g#	.
.	.	8a#	.
=4	=4	=4	=4
1r	1r	8b	2dd
.	.	8f#	.
.	.	2b	.
.	.	.	4cc#
.	.	4a	[4ff#
=5	=5	=5	=5
1r	1r	4.g#	8ff#]
.	.	.	8b
.	.	.	4.ee
.	.	8cc#	.
.	.	8a#	.
.	.	8f#	16dd
.	.	.	16cc#
.	.	[4b	8dd
.	.	.	16ee
.	.	.	16dd
=6	=6	=6	=6
2F#	2F#	4b]	2cc#
.	.	4a#	.
4BB	4BB	4b	8r
.	.	.	8b
4B	4B	4r	8dd
.	.	.	16cc#
.	.	.	16b
=7	=7	=7	=7
4A	4A	2ff#	8cc#
.	.	.	8f#
8G	8G	.	4.ff#
8F#	8F#	.	.
2G	2G	4b	.
.	.	.	16ee
.	.	.	16dd
.	.	4bb	[4ee
=8	=8	=8	=8
2F#	2F#	4aa	8ee]
.	.	.	8a
.	.	8gg	2dd
.	.	8ff#	.
4E	4E	2gg	.
4AA	4AA	.	4cc#
=9	=9	=9	=9
4D	4D	2ff#	8r
.	.	.	8ff#
2d	2d	.	8ff#
.	.	.	8ff#
.	.	2ee	8gg#
.	.	.	8gg#
4c#	4c#	.	8gg#
.	.	.	8aa#
=10	=10	=10	=10
4B	4B	2dd	8bb
.	.	.	8ff#
4r	4r	.	2bb
2F#	2F#	4.cc#	.
.	.	.	[4aa
.	.	8ff#	.
=11	=11	=11	=11
4BB	4BB	8dd#	4aa]
.	.	8b	.
4E	4E	8b	2gg
.	.	8ee	.
4AA	4AA	8cc#	.
.	.	8a	.
8r	8r	[4dd	4ff#
8D	8D	.	.
=12	=12	=12	=12
4.A	4.A	8dd]	4.ee
.	.	16cc#	.
.	.	16b	.
.	.	4.cc#	.
8A#	8A#	.	16ff#
.	.	.	16ee
8B	8B	.	4.dd
8BB	8BB	8f#	.
8D	8D	[4b	.
8BB	8BB	.	16ee
.	.	.	16dd
=13	=13	=13	=13
4.F#	8F#	8b]	4.cc#
.	8F#	16cc#	.
.	.	16b	.
.	8A	4.a	.
8F#	8F#	.	8ff#
8G	8G	.	4.b
8A	8A	8d	.
8B	8B	[4g	.
8c#	8c#	.	8ee
=14	=14	=14	=14
4d	4d	8g]	4.a
.	.	16f#	.
.	.	16e	.
4D	4D	4.f#	.
.	.	.	8d
4BB	4BB	.	4.g
.	.	8B	.
4C#	4C#	[4e	.
.	.	.	16f#
.	.	.	16e
=15	=15	=15	=15
4.D	4.D	8e]	4.f#
.	.	8A	.
.	.	2d	.
8F#	8F#	.	8a
8G	8G	.	8b
8E	8E	.	8e
8A	8A	4c#	4e
8AA	8AA	.	.
=16	=16	=16	=16
2D	2D	2d	4d
.	.	.	4ff#
2r	2r	4r	4b
.	.	4b	4bb
=17	=17	=17	=17
1r	1r	4f#	4aa
.	.	4ff#	8gg
.	.	.	8ff#
.	.	4ee	2gg
.	.	8dd	.
.	.	8cc#	.
=18	=18	=18	=18
8r	8r	8dd	2ff#
8F#	8F#	8a	.
8F#	8F#	2dd	.
8F#	8F#	.	.
8G#	8G#	.	2ee
8G#	8G#	.	.
8G#	8G#	[4cc#	.
8A#	8A#	.	.
=19	=19	=19	=19
8B	8B	4cc#]	2dd
8F#	8F#	.	.
4B	4B	2b	.
2F#	2F#	.	2cc#
.	.	[4a	.
=20	=20	=20	=20
2BB	2BB	4a]	8dd
.	.	.	8cc#
.	.	8g#	2b
.	.	8f#	.
2C#	2C#	8e#	.
.	.	8c#	.
.	.	[4cc#	8a
.	.	.	8g#
=21	=21	=21	=21
4D	4D	4cc#]	8f#
.	.	.	8a
8r	8r	2b	8g#
8BB	8BB	.	8f#
4C#	4C#	.	8e#
.	.	.	8c#
8r	8r	4a	[4f#
8AA	8AA	.	.
=22	=22	=22	=22
4BB	4BB	2g#	4f#]
4C#	4C#	.	4e#
4FF#	4FF#	4f#	8f#
.	.	.	8ff#
4r	4r	4r	8ff#
.	.	.	8ff#
=23	=23	=23	=23
1r	1r	8r	[2gg
.	.	8b	.
.	.	8b	.
.	.	8cc#	.
.	.	8dd	8gg]
.	.	8a	8ff#
.	.	[4dd	8ff#
.	.	.	8gg#
=24	=24	=24	=24
1r	1r	8dd]	8aa
.	.	8cc#	8ee
.	.	8cc#	4.aa
.	.	8dd#	.
.	.	8ee	.
.	.	8b	8gg#
.	.	[4ee	8gg#
.	.	.	8aa#
=25	=25	=25	=25
1r	1r	8ee]	8bb
.	.	8dd	8ff#
.	.	8dd	2bb
.	.	8ee	.
.	.	8ff#	.
.	.	8cc#	.
.	.	[4ff#	4aa
=26	=26	=26	=26
2r	2r	8ff#]	2gg
.	.	8b	.
.	.	2ee	.
2B	2B	.	2ff#
.	.	4dd#	.
=27	=27	=27	=27
4E	4E	8r	4ee
.	.	8ee	.
4e	4e	8gg	4r
.	.	16ff#	.
.	.	16ee	.
4d	4d	8ff#	2b
.	.	8b	.
8c	8c	[4bb	.
8B	8B	.	.
=28	=28	=28	=28
2c	2c	8bb]	4e
.	.	8ee	.
.	.	4.aa	4ee
4B	4B	.	4dd
.	.	8dd	.
4e	4e	[4gg	8cc
.	.	.	8b
=29	=29	=29	=29
4A	4A	4gg]	2cc
4d	4d	4.ff#	.
2G	2G	.	4.b
.	.	8b	.
.	.	[4ee	.
.	.	.	16cc#
.	.	.	16b
=30	=30	=30	=30
4F#	4F#	8ee]	8a#
.	.	16ff#	8f#
.	.	16ee	.
4r	4r	8dd	2b
.	.	16ee	.
.	.	16dd	.
2f#	2f#	2cc#	.
.	.	.	4a#
=31	=31	=31	=31
4B	4B	4b	8r
.	.	.	8b
4b	4b	4r	8dd
.	.	.	16cc#
.	.	.	16b
4a	4a	2ff#	8cc#
.	.	.	8f#
8g	8g	.	[4ff#
8f#	8f#	.	.
=32	=32	=32	=32
2g	2g	4b	8ff#]
.	.	.	8b
.	.	4bb	4.ee
2f#	2f#	4aa	.
.	.	.	8a
.	.	8gg	[4dd
.	.	8ff#	.
=33	=33	=33	=33
2e	2e	2gg	4dd]
.	.	.	4cc#
[2d	[2d	2ff#	8r
.	.	.	8f#
.	.	.	8f#
.	.	.	8f#
=34	=34	=34	=34
4d]	4d]	2ee	8g#
.	.	.	8g#
4c#	4c#	.	8g#
.	.	.	8a#
4B	4B	2dd	8b
.	.	.	8f#
4r	4r	.	[4b
=35	=35	=35	=35
2F#	2F#	2.cc#	4b]
.	.	.	4a#
4BB	4BB	.	2dd
4B	4B	4b	.
=36	=36	=36	=36
4A	4A	4f#	4.cc#
8G	8G	2ff#	.
8F#	8F#	.	8ff#
2G	2G	.	4b
.	.	[4ee	4bb
=37	=37	=37	=37
[1F#	[1F#	4ee]	4aa#
.	.	4dd	4ff#
.	.	4cc#	4ee
.	.	4b	4dd
=38	=38	=38	=38
4F#]	4F#]	4a#	4cc#
4E	4E	2b	4dd
2F#	2F#	.	2cc#
.	.	4a#	.
=39	=39	=39	=39
1BB	1BB	1b	1b
==	==	==	==
*-	*-	*-	*-
!!!RWG: This file only contains pitch and duration data.
!!!RWG: Transposing instruments are not transposed.
!!!RWG: Durations of rests and tied notes may be interpreted.
!!!RWG: Key is interpreted using the Humdrum key tool.
!!!SCA: 
!!!YOR: Chrysander Edition
!!!AGN: chamber
!!!AFT: stage1
!!!ENC: F. Bennion
!!!END: 1997/04/15
!!!AST: baroque
!!!YEC: Copyright 1994, Center for Computer Assisted Research in the Humanities
!!!YEM: Rights to all derivative electronic formats reserved.
!!!YEM: Refer to licensing agreement for further details.
!!!YEN: United States of America
!!!EED: W.B. Hewlett
!!!KEY: 3601424861
!!!EMD: Converted from MuseData to Humdrum Aug 9, 1999, by Bret Aarden using muse2kern.
!!!VTS: 607145467
